dist/images/stars.svg

<svg width="126" height="22" viewBox="0 0 126 22" fill="none" xmlns="http://www.w3.org/2000/svg">
<path d="M10.1288 1.54558C10.5114 0.866931 11.4886 0.86693 11.8712 1.54557L14.2667 5.79573C14.4094 6.04891 14.6552 6.22748 14.9401 6.28496L19.7225 7.24991C20.4861 7.40399 20.7881 8.33343 20.2609 8.90693L16.959 12.4986C16.7623 12.7126 16.6685 13.0015 16.7018 13.2902L17.2619 18.1367C17.3514 18.9106 16.5608 19.485 15.8524 19.1608L11.4162 17.1305C11.1519 17.0095 10.8481 17.0095 10.5838 17.1305L6.1476 19.1608C5.43925 19.485 4.64861 18.9106 4.73805 18.1367L5.29818 13.2902C5.33155 13.0015 5.23766 12.7126 5.04098 12.4986L1.73911 8.90693C1.21188 8.33343 1.51388 7.40399 2.27751 7.24991L7.05992 6.28496C7.3448 6.22748 7.59058 6.04891 7.73328 5.79573L10.1288 1.54558Z" fill="#FFD80C"/>
<path d="M36.1288 1.54558C36.5114 0.866931 37.4886 0.86693 37.8712 1.54557L40.2667 5.79573C40.4094 6.04891 40.6552 6.22748 40.9401 6.28496L45.7225 7.24991C46.4861 7.40399 46.7881 8.33343 46.2609 8.90693L42.959 12.4986C42.7623 12.7126 42.6685 13.0015 42.7018 13.2902L43.2619 18.1367C43.3514 18.9106 42.5608 19.485 41.8524 19.1608L37.4162 17.1305C37.1519 17.0095 36.8481 17.0095 36.5838 17.1305L32.1476 19.1608C31.4392 19.485 30.6486 18.9106 30.7381 18.1367L31.2982 13.2902C31.3315 13.0015 31.2377 12.7126 31.041 12.4986L27.7391 8.90693C27.2119 8.33343 27.5139 7.40399 28.2775 7.24991L33.0599 6.28496C33.3448 6.22748 33.5906 6.04891 33.7333 5.79573L36.1288 1.54558Z" fill="#FFD80C"/>
<path d="M62.1288 1.54558C62.5114 0.866931 63.4886 0.86693 63.8712 1.54557L66.2667 5.79573C66.4094 6.04891 66.6552 6.22748 66.9401 6.28496L71.7225 7.24991C72.4861 7.40399 72.7881 8.33343 72.2609 8.90693L68.959 12.4986C68.7623 12.7126 68.6685 13.0015 68.7018 13.2902L69.2619 18.1367C69.3514 18.9106 68.5608 19.485 67.8524 19.1608L63.4162 17.1305C63.1519 17.0095 62.8481 17.0095 62.5838 17.1305L58.1476 19.1608C57.4392 19.485 56.6486 18.9106 56.7381 18.1367L57.2982 13.2902C57.3315 13.0015 57.2377 12.7126 57.041 12.4986L53.7391 8.90693C53.2119 8.33343 53.5139 7.40399 54.2775 7.24991L59.0599 6.28496C59.3448 6.22748 59.5906 6.04891 59.7333 5.79573L62.1288 1.54558Z" fill="#FFD80C"/>
<path d="M88.1288 1.54558C88.5114 0.866931 89.4886 0.86693 89.8712 1.54557L92.2667 5.79573C92.4094 6.04891 92.6552 6.22748 92.9401 6.28496L97.7225 7.24991C98.4861 7.40399 98.7881 8.33343 98.2609 8.90693L94.959 12.4986C94.7623 12.7126 94.6685 13.0015 94.7018 13.2902L95.2619 18.1367C95.3514 18.9106 94.5608 19.485 93.8524 19.1608L89.4162 17.1305C89.1519 17.0095 88.8481 17.0095 88.5838 17.1305L84.1476 19.1608C83.4392 19.485 82.6486 18.9106 82.7381 18.1367L83.2982 13.2902C83.3315 13.0015 83.2377 12.7126 83.041 12.4986L79.7391 8.90693C79.2119 8.33343 79.5139 7.40399 80.2775 7.24991L85.0599 6.28496C85.3448 6.22748 85.5906 6.04891 85.7333 5.79573L88.1288 1.54558Z" fill="#FFD80C"/>
<path d="M114.129 1.54558C114.511 0.866931 115.489 0.86693 115.871 1.54557L118.267 5.79573C118.409 6.04891 118.655 6.22748 118.94 6.28496L123.722 7.24991C124.486 7.40399 124.788 8.33343 124.261 8.90693L120.959 12.4986C120.762 12.7126 120.668 13.0015 120.702 13.2902L121.262 18.1367C121.351 18.9106 120.561 19.485 119.852 19.1608L115.416 17.1305C115.152 17.0095 114.848 17.0095 114.584 17.1305L110.148 19.1608C109.439 19.485 108.649 18.9106 108.738 18.1367L109.298 13.2902C109.332 13.0015 109.238 12.7126 109.041 12.4986L105.739 8.90693C105.212 8.33343 105.514 7.40399 106.278 7.24991L111.06 6.28496C111.345 6.22748 111.591 6.04891 111.733 5.79573L114.129 1.54558Z" fill="#FFD80C"/>
</svg>

<svg width="126" height="22" fill="none" xmlns="http://www.w3.org/2000/svg"><path d="M10.129 1.546a1 1 0 0 1 1.742 0l2.396 4.25a1 1 0 0 0 .673.489l4.783.965a1 1 0 0 1 .538 1.657l-3.302 3.592a1 1 0 0 0-.257.791l.56 4.847a1 1 0 0 1-1.41 1.024l-4.436-2.03a1 1 0 0 0-.832 0l-4.436 2.03a1 1 0 0 1-1.41-1.024l.56-4.847a1 1 0 0 0-.257-.791L1.739 8.907a1 1 0 0 1 .539-1.657l4.782-.965a1 1 0 0 0 .673-.49l2.396-4.25Zm26 0a1 1 0 0 1 1.742 0l2.396 4.25a1 1 0 0 0 .673.489l4.782.965a1 1 0 0 1 .539 1.657l-3.302 3.592a1 1 0 0 0-.257.791l.56 4.847a1 1 0 0 1-1.41 1.024l-4.436-2.03a1 1 0 0 0-.832 0l-4.436 2.03a1 1 0 0 1-1.41-1.024l.56-4.847a1 1 0 0 0-.257-.791l-3.302-3.592a1 1 0 0 1 .538-1.657l4.783-.965a1 1 0 0 0 .673-.49l2.396-4.25Zm26 0a1 1 0 0 1 1.742 0l2.396 4.25a1 1 0 0 0 .673.489l4.782.965a1 1 0 0 1 .539 1.657l-3.302 3.592a1 1 0 0 0-.257.791l.56 4.847a1 1 0 0 1-1.41 1.024l-4.436-2.03a1 1 0 0 0-.832 0l-4.436 2.03a1 1 0 0 1-1.41-1.024l.56-4.847a1 1 0 0 0-.257-.791l-3.302-3.592a1 1 0 0 1 .539-1.657l4.782-.965a1 1 0 0 0 .673-.49l2.396-4.25Zm26 0a1 1 0 0 1 1.742 0l2.396 4.25a1 1 0 0 0 .673.489l4.782.965a1 1 0 0 1 .539 1.657l-3.302 3.592a1 1 0 0 0-.257.791l.56 4.847a1 1 0 0 1-1.41 1.024l-4.436-2.03a1 1 0 0 0-.832 0l-4.436 2.03a1 1 0 0 1-1.41-1.024l.56-4.847a1 1 0 0 0-.257-.791l-3.302-3.592a1 1 0 0 1 .538-1.657l4.783-.965a1 1 0 0 0 .673-.49l2.396-4.25Zm26 0a1 1 0 0 1 1.742 0l2.396 4.25a.998.998 0 0 0 .673.489l4.782.965a1 1 0 0 1 .539 1.657l-3.302 3.592a.997.997 0 0 0-.257.791l.56 4.847a1 1 0 0 1-1.41 1.024l-4.436-2.03a.999.999 0 0 0-.832 0l-4.436 2.03a1 1 0 0 1-1.41-1.024l.56-4.847a.997.997 0 0 0-.257-.791l-3.302-3.592a1 1 0 0 1 .539-1.657l4.782-.965a.998.998 0 0 0 .673-.49l2.396-4.25Z" fill="#FFD80C"/></svg>
